X:1
T:Title
%%score { ( 1 3 ) | 2 }
L:1/8
Q:1/4=94
M:4/4
K:Ab
V:1 treble nm="Grand Piano"
V:3 treble 
V:2 bass 
V:1
 (3ccc c>c c>B [CA]>[DF] | (3[CE][CE][CE] [CE]>[DF] [CE]4 | %2
w: Will~H.~Ruebush * * * * * * * *||
 (3[Ed][Ed][Ed] [Ed]2 (3[Ec][Ec][Ec] [Ec]2 | (3BBB B>c B2 e2 | (3ccc c>c c>B [CA]>[DF] | %5
w: |||
 (3[CE][CE][CE] [CE]>[DF] [CE]4 | (3[Ed][Ed][Ed] [Ec]2 (3[FB][FB][FB] [F_c]2 | (3ccc c>B [CA]4 | %8
w: |||
 (3[Ec][Ec][Ec] [CE]>[DF] [CE]2 (3CEA | (3[Fd][Fd][Fd] [DF]>[EG] F2 (3FBd | %10
w: ||
 (3[Ge][Ge][Ge] [Ge]>[Ge] [Ge]>[Fd] c>B | (3[CA][CA][CA] [DA]>[DF] [CE]2 z2 | %12
w: ||
 (3[Ec][Ec][Ec] [CE]>[DF] [CE]2 (3CEA | (3[Fd][Fd][Fd] [DF]>[EG] F2 (3FBd | %14
w: ||
 (3[Ge][Ge][Ge] [Ge]>[Ge] [Ge]>[Fd] c>B | A6 z2 |] %16
w: ||
V:2
 (3[A,E][A,E][A,E] [A,E]>[A,E] [A,E]>[A,D] [A,,A,]>[A,,A,] | %1
 (3[A,,A,][A,,A,][A,,A,] [A,,A,]>[A,,A,] [A,,A,]4 | %2
 (3[B,,G,][B,,G,][B,,G,] [B,,G,]2 (3[C,A,][C,A,][C,A,] [C,A,]2 | %3
 (3[E,G,E][E,G,E][E,G,E] [E,G,E]>[E,A,E] [E,G,E]2 [E,B,]2 | %4
 (3[A,E][A,E][A,E] [A,E]>[A,E] [A,E]>[A,D] [A,,A,]>[A,,A,] | %5
 (3[A,,A,][A,,A,][A,,A,] [A,,A,]>[A,,A,] [A,,A,]4 | %6
 (3[B,,G,][B,,G,][B,,G,] [C,A,]2 (3[D,A,][D,A,][D,A,] [=D,A,]2 | %7
 (3[E,A,E][E,A,E][E,A,E] [E,G,E]>[E,G,D] [A,,A,]4 | %8
 (3[A,,A,][A,,A,][A,,A,] [A,,A,]>[A,,A,] [A,,A,]2 z2 | %9
 (3[D,A,][D,A,][D,A,] [D,A,]>[D,A,] [D,A,D]2 z2 | %10
 (3[E,B,][E,B,][E,B,] [E,B,]>[E,B,] [E,B,]>[E,B,] [E,G,E]>[E,D] | %11
 (3[A,,E,][A,,E,][A,,E,] [A,,F,]>[A,,A,] [A,,A,]2 z2 | %12
 (3[A,,A,][A,,A,][A,,A,] [A,,A,]>[A,,A,] [A,,A,]2 z2 | %13
 (3[D,A,][D,A,][D,A,] [D,A,]>[D,A,] [D,A,D]2 z2 | %14
 (3[E,B,][E,B,][E,B,] [E,B,]>[E,B,] [E,B,]>[E,B,] [E,G,E]>D | %15
 [A,,E,]2 [A,,F,]>[A,,F,] [A,,E,]2 z2 |] %16
V:3
 x8 | x8 | x8 | x8 | x8 | x8 | x8 | x8 | x8 | x8 | x8 | x8 | x8 | x8 | x8 | C2 D>D C2 z2 |] %16

